!!!OTL: Luoyang qiaoer meihua zhuang
!!!ARE: Asia, China,ÿGansu, Wudu
!! I, 134
!!!SCT: C1418
!!!YEM: Copyright 1995, estate of Helmut Schaffrath.
**kern
*ICvox
*Ivox
*M2/4
*k[b-]
*F:
{16dd
16cc
4dd
16cc
16dd
=1
8gg
16ee
16dd
16cc
16dd
8a
=2
16.cc
32dd
16ee
16gg
16ee
16dd
8cc
=3
16dd
16cc
4.a}
=4
{16a
16cc
16f
16g
8a
8d
=5
8a
8ee
8dd
16cc
16a
=6
16cc
16a
4g
16f
16g
=7
4.a
8r}
=8
{16a
16cc
16a
16g
16a
16cc
8f
=9
16g
16f
4d}
{16f
16g
=10
8a
8ee
8dd
16cc
16a
=11
16cc
16a
4g}
{16f
16g
=12
16a
16cc
16a
16g
8cc
8f
=13
16g
16f
4.d}
=14
{8a
8cc
16a
16cc
16a
16g
=15
8a
8cc
16a
16cc
16a
16g
=16
16a
16cc
16a
16g
16a
16cc
8f
=17
16g
16f
4.d}
==
!!!AGN: Wuge, Yangge, Hanchuan
!!!ONB: ESAC (Essen Associative Code) Database: HUANG
!!!AMT: simple duple
!!!AIN: vox
!!!EED: Helmut Schaffrath
!!!EEV: 1.0
*-
